public/logos/budweiser.svg

<svg xmlns="http://www.w3.org/2000/svg" width="611" height="200" fill="none"><g clip-path="url(#a)"><path fill="#fff" d="M611 0 483.379 199.6l-239.81-48L0 190.8 65.69 88.2c2.177 1.2 4.551 2.2 7.52 2.6l-56.985 89.4 227.74-36.6 235.654 47 49.466-77.4h.396c4.155 0 7.518-1.6 9.101-3l-1.583-3.4-2.968-2.2L593.984 11 293.826 70.2c2.177-3.8 4.155-7.2 5.342-9.2zM415.71 77.8c3.759 0 6.727-3.8 6.727-7.6 0-3.4-2.177-4.6-4.551-4.6-4.155 0-7.123 4.2-7.123 7.6 0 2.4 1.583 4.6 4.947 4.6M87.257 51.2h1.979l31.658-48.8 160.467 62.2c.395-.4.395-.8.791-1.2 2.177-3.8 3.76-6.4 3.76-6.4l12.069-.8c-8.706 14.8-25.326 42-26.513 44.2-7.123 12.2-10.487 18-10.487 21.4 0 1.2.396 2.2 1.583 2.2 3.759 0 11.674-5.8 27.503-26 1.187-1.6 4.946-7.2 6.727-9.2l11.278-.4c-6.331 9.6-15.037 22.6-18.797 29.4-1.583 2.6-2.572 4.2-2.572 5 0 1.2.791 1.6 1.583 1.6 4.155 0 12.465-6.8 24.139-23.6 2.968-4.2 4.947-7.6 7.915-11.8l11.278-.4c-3.364 5-9.498 15.6-10.487 16.8-5.342 8.8-8.31 14.2-8.31 16.8 0 1.2.396 2.2 2.176 2.2 8.311 0 19.589-15.2 22.359-23.2 0-5.4.791-10 2.968-12.6.791-1.2 2.176-2.6 4.551-2.6 1.583 0 2.968.8 2.968 2.2 0 2.2-2.573 8-6.728 15.2 1.187 3 3.76 4.6 6.728 5.4 4.55-8.4 15.037-22.2 28.69-22.2 4.946 0 7.123 1.6 7.123 5.4 0 7.2-10.883 17.2-25.722 19.4-1.188 2.6-2.573 5.4-2.573 8.4 0 2.6 1.188 4.6 4.947 4.6 12.07 0 26.514-18.4 34.428-29 .396-.8 3.759-5 4.551-6.4l11.278-.8c-9.497 15.2-12.465 20.2-12.465 20.2-2.968 5-6.728 11.4-6.728 13.4 0 1.2.792 2.2 2.177 2.2 4.551 0 12.861-7.6 24.535-19.8 4.946-5 10.487-11 14.048-15.2 1.187-4.6 3.76-6.8 6.727-6.8 2.573 0 3.364 1.2 3.364 3.4 0 2.6-2.176 4.2-4.155 4.6v2.2c0 4.6.396 8 .396 13 0 4.6-.792 8.8-3.364 13 5.738-4.6 17.412-16 24.535-22.2 7.123-6.8 14.048-9.2 19.588-9.2 4.551 0 7.124 1.6 7.124 5.4 0 9.2-15.434 18-25.723 19.4-1.187 2.2-2.572 5.8-2.572 8.8 0 2.6 1.583 4.2 4.155 4.2 8.311 0 16.621-8.8 23.348-16.8 10.487-13 15.038-20.2 22.952-20.2 4.155 0 6.332 2.2 6.332 5 0 3.8-1.583 7.2-5.343 13.8 12.07-15.6 17.808-19 21.963-19 2.968 0 4.947 1.6 4.947 3.8-4.155 1.2-8.31 7.2-8.31 11.4 0 1.2.395 2.2.791 3 .396.4 1.187.8 2.572.8s2.572-.4 4.155-1.2l.792 2.2c-2.177 1.2-4.155 1.6-7.123 1.6-5.343 0-8.311-2.6-8.311-6.8 0-2.6 1.188-5.4 2.968-8-7.123 6.4-21.567 25.2-26.513 33.6l-11.278.4c1.583-2.6 11.278-16.8 17.807-28.6 2.177-3.8 3.364-5.4 3.364-7.2q0-1.2-1.187-1.2c-3.76 0-9.498 7.6-17.412 17.6-5.738 7.6-16.225 20.2-29.877 20.2-7.123 0-10.487-3.8-10.487-8.8 0-4.6 1.583-8.8 4.155-12.6-3.364 3-6.727 5.8-9.893 8.8-6.332 5.8-14.642 12.6-25.722 12.6-5.738 0-9.102-2.6-9.102-5.4 0-1.6 1.187-3 2.572-3 3.76 0 2.572 5.4 7.519 5.4 5.738 0 10.487-5.4 13.257-22.2.396-2.2 1.187-6.8 2.176-9.6-8.706 9.2-15.037 15.6-17.412 18.4-7.518 7.6-16.224 16-24.535 16-4.55 0-7.518-2.6-7.518-6.4 0-2.6 1.187-5.8 4.155-11.8-6.728 7.2-17.016 18-29.878 18-7.518 0-10.882-3.8-10.882-9.2 0-2.6.791-5.4 2.177-8.4-2.968-.8-5.343-2.6-7.124-5-3.363 5.4-7.518 11-13.256 16-5.738 5.4-11.279 7.2-15.829 7.2s-7.519-2.2-7.519-6.4c0-3 1.583-6.4 2.968-9.2-6.332 7.6-14.048 15.6-22.952 15.6-3.76 0-7.123-1.6-7.123-6.4 0-3 1.583-5.8 4.155-10.6-5.343 5.8-14.048 16.8-24.139 16.8-4.551 0-7.124-2.6-7.124-6.4 0-3.4 1.583-6.8 2.968-9.2-1.187 1.6-2.572 3-3.363 4.2-7.123 8-12.861 11.4-19.193 11.4-4.551 0-7.519-2.6-7.519-7.2 0-2.2.792-5 1.583-7.2-6.727 7.2-14.048 14.2-22.358 14.2-4.551 0-6.728-2.6-6.728-5.8 0-2.2.792-4.6 2.573-8l-2.77 3c-5.738 5.8-12.862 11-19.589 11-4.155 0-7.123-2.2-7.123-6.4 0-3 2.177-8 7.519-15.6l-3.364 3.6c-16.62 16-33.241 25.6-51.048 25.6-13.257 0-17.412-5.8-17.412-13 0-1.6.395-3.4.395-3.4l-2.572 3c-6.727 8.4-11.674 13-18.203 13-5.343 0-9.893-2.6-9.893-7.6 0-3 1.583-5.8 3.76-9.6 4.55-7.6 17.015-26 26.117-39.4C99.525 83 91.215 86 80.333 86 64.898 86 57.38 79.6 57.38 70.4c-.396-10.8 10.883-18.8 29.877-19.2m374.159 57.6c8.706-1.2 19.588-10.6 19.588-17.2 0-1.2-.396-2.2-1.583-2.2-5.144.6-11.278 7.2-18.005 19.4m-101.899 0c8.705-1.2 19.588-10 19.588-17.2 0-1.2-.792-2.2-2.177-2.2-5.342.6-11.871 9.8-17.411 19.4m-245.548-8c8.31-12.2 16.62-25.2 21.963-33.2-2.573-1.2-4.947-2.6-7.123-3.8-2.77 3.8-37.396 55.6-39.77 59.8-2.177 3.4-2.573 5-2.573 5.8s.396 1.6 1.583 1.6 2.968-.8 4.947-2.6c5.144-4 11.673-13.6 20.973-27.6m16.62-11.4 2.573-4.2c7.914 0 14.048 0 18.203-2.2 9.893-4.6 15.038-16 15.038-21.4 0-3.8-1.583-7.2-6.728-7.2-7.519 0-14.642 7.6-18.797 13 3.76 2.2 6.728 4.2 8.31 5.8l-1.187 2.2c-2.572-2.2-5.342-3.8-8.31-5.8-4.947 6.4-15.829 23.6-23.348 34.4 4.947-3.4 11.278-4.2 15.434-4.2v3c-14.642.4-23.348 10-23.348 20.2 0 5.4 2.968 9.2 10.882 9.2 18.204 0 30.273-19.8 30.273-32.4 0-5.8-2.176-11-11.278-11h-4.155c-1.583.2-2.77.6-3.562.6m132.173 4.8c0-2.2-1.583-3.8-4.155-3.8-4.551 0-8.706 3-15.038 10.6-4.947 6.8-10.487 16.4-10.487 20.6 0 1.2.396 2.6 2.572 2.6s5.738-1.6 11.279-7.6c4.946-5.4 10.882-13 15.037-20.6.792-.6.792-1.4.792-1.8m-164.226-42c1.583 0 3.759.4 5.342.8 6.727 1.2 12.07 3 17.016 4.6.792-1.2 1.583-2.6 2.572-3.8l13.257-.4c-1.187 1.6-3.364 5-6.331 8.4 2.572 1.2 4.946 2.6 7.518 3.8C146.221 55 154.135 50 164.226 50c10.882 0 15.038 6.4 15.038 12.6 0 5.8-3.364 12.6-7.519 16.4-5.342 5.4-12.861 8-18.797 9.2 3.364 1.6 9.102 4.6 9.102 14.2 0 8-4.551 15.6-9.498 21.4 9.893-5.8 24.139-19.4 30.273-27.4 1.187-1.6 4.155-5.4 5.342-7.6l11.674-.8s-15.037 22.6-18.203 28.6c-1.583 3.4-2.572 4.6-2.572 5.4s.395 1.6 1.583 1.6c4.55 0 13.256-7.6 19.192-16 2.968-3.8 12.861-19 12.861-19l12.07-.8c-9.497 15.2-12.861 20.2-12.861 20.2-3.364 5-5.738 9.6-6.332 12.2-.395.8-.395 1.2-.395 1.6 0 1.2.395 1.6 1.583 1.6 7.123 0 19.588-16.4 23.347-21.4 7.123-9.2 16.225-15.6 25.722-15.6 4.156 0 7.124 1.6 8.311 4.6 2.572-4.2 7.123-11.4 10.882-18 .396-.8.792-1.2 1.187-1.6L123.862 12.2zM61.93 71.4c0 3 .791 5.4 2.968 7.6 1.187 1.2 2.968 2.6 4.947 3l15.037-23.2c1.583 0 3.76-.4 5.738-.4h3.76L78.55 83.2h6.333c14.839-1.2 23.94-9.2 27.304-13.4 0 0 7.123-10 7.519-10.6-7.123-2.6-17.016-5.4-29.086-5.4-18.203.8-28.69 8-28.69 17.6m443.608 124c0 1.2-.396 2.6-1.187 3.4s-2.176 1.2-3.364 1.2-2.572-.4-3.363-1.2c-.792-.8-1.188-2.2-1.188-3.4s.396-2.6 1.188-3.4 2.176-1.2 3.363-1.2c1.188 0 2.573.4 3.364 1.2s1.187 1.6 1.187 3.4m-.989 0q0-1.8-1.187-3c-.792-.8-1.583-1.2-2.968-1.2q-1.781 0-2.968 1.2c-.792.8-1.187 1.6-1.187 3s.395 2.2 1.187 3c.791.8 1.583 1.2 2.968 1.2s2.176-.4 2.968-1.2c.791-1 1.187-2.2 1.187-3m-1.583 2.4h-1.187l-.792-2.2h-1.187v2.2h-1.187V192h2.572c.792 0 1.187 0 1.583.4s.396.8.396 1.2c0 .8-.396 1.2-1.187 1.6zm-3.364-2.8h1.187c.792 0 1.188-.4 1.188-.8s-.396-.8-.792-.8h-1.187v1.6z"/></g><defs><clipPath id="a"><path fill="#fff" d="M0 0h611v200H0z"/></clipPath></defs></svg>

<svg width="611" height="200" viewBox="0 0 611 200" fill="none" xmlns="http://www.w3.org/2000/svg">
<g clip-path="url(#clip0_7_60)">
<path d="M611 0L483.379 199.6L243.569 151.6L0 190.8L65.6904 88.2C67.8669 89.4 70.2413 90.4 73.2092 90.8L16.2247 180.2L243.965 143.6L479.619 190.6L529.085 113.2H529.481C533.636 113.2 536.999 111.6 538.582 110.2L536.999 106.8L534.031 104.6L593.984 11L293.826 70.2C296.003 66.4 297.981 63 299.168 61L611 0ZM415.71 77.8C419.469 77.8 422.437 74 422.437 70.2C422.437 66.8 420.26 65.6 417.886 65.6C413.731 65.6 410.763 69.8 410.763 73.2C410.763 75.6 412.346 77.8 415.71 77.8ZM87.2574 51.2C87.6532 51.2 88.4446 51.2 88.8404 51.2H89.2361L120.894 2.4L281.361 64.6C281.756 64.2 281.756 63.8 282.152 63.4C284.329 59.6 285.912 57 285.912 57L297.981 56.2C289.275 71 272.655 98.2 271.468 100.4C264.345 112.6 260.981 118.4 260.981 121.8C260.981 123 261.377 124 262.564 124C266.323 124 274.238 118.2 290.067 98C291.254 96.4 295.013 90.8 296.794 88.8L308.072 88.4C301.741 98 293.035 111 289.275 117.8C287.692 120.4 286.703 122 286.703 122.8C286.703 124 287.494 124.4 288.286 124.4C292.441 124.4 300.751 117.6 312.425 100.8C315.393 96.6 317.372 93.2 320.34 89L331.618 88.6C328.254 93.6 322.12 104.2 321.131 105.4C315.789 114.2 312.821 119.6 312.821 122.2C312.821 123.4 313.217 124.4 314.997 124.4C323.308 124.4 334.586 109.2 337.356 101.2C337.356 95.8 338.147 91.2 340.324 88.6C341.115 87.4 342.5 86 344.875 86C346.458 86 347.843 86.8 347.843 88.2C347.843 90.4 345.27 96.2 341.115 103.4C342.302 106.4 344.875 108 347.843 108.8C352.393 100.4 362.88 86.6 376.533 86.6C381.479 86.6 383.656 88.2 383.656 92C383.656 99.2 372.773 109.2 357.934 111.4C356.746 114 355.361 116.8 355.361 119.8C355.361 122.4 356.549 124.4 360.308 124.4C372.378 124.4 386.822 106 394.736 95.4C395.132 94.6 398.495 90.4 399.287 89L410.565 88.2C401.068 103.4 398.1 108.4 398.1 108.4C395.132 113.4 391.372 119.8 391.372 121.8C391.372 123 392.164 124 393.549 124C398.1 124 406.41 116.4 418.084 104.2C423.03 99.2 428.571 93.2 432.132 89C433.319 84.4 435.892 82.2 438.859 82.2C441.432 82.2 442.223 83.4 442.223 85.6C442.223 88.2 440.047 89.8 438.068 90.2C438.068 90.6 438.068 91.4 438.068 92.4C438.068 97 438.464 100.4 438.464 105.4C438.464 110 437.672 114.2 435.1 118.4C440.838 113.8 452.512 102.4 459.635 96.2C466.758 89.4 473.683 87 479.223 87C483.774 87 486.347 88.6 486.347 92.4C486.347 101.6 470.913 110.4 460.624 111.8C459.437 114 458.052 117.6 458.052 120.6C458.052 123.2 459.635 124.8 462.207 124.8C470.518 124.8 478.828 116 485.555 108C496.042 95 500.593 87.8 508.507 87.8C512.662 87.8 514.839 90 514.839 92.8C514.839 96.6 513.256 100 509.496 106.6C521.566 91 527.304 87.6 531.459 87.6C534.427 87.6 536.406 89.2 536.406 91.4C532.251 92.6 528.096 98.6 528.096 102.8C528.096 104 528.491 105 528.887 105.8C529.283 106.2 530.074 106.6 531.459 106.6C532.844 106.6 534.031 106.2 535.614 105.4L536.406 107.6C534.229 108.8 532.251 109.2 529.283 109.2C523.94 109.2 520.972 106.6 520.972 102.4C520.972 99.8 522.16 97 523.94 94.4C516.817 100.8 502.373 119.6 497.427 128L486.149 128.4C487.732 125.8 497.427 111.6 503.956 99.8C506.133 96 507.32 94.4 507.32 92.6C507.32 91.8 506.924 91.4 506.133 91.4C502.373 91.4 496.635 99 488.721 109C482.983 116.6 472.496 129.2 458.844 129.2C451.721 129.2 448.357 125.4 448.357 120.4C448.357 115.8 449.94 111.6 452.512 107.8C449.148 110.8 445.785 113.6 442.619 116.6C436.287 122.4 427.977 129.2 416.897 129.2C411.159 129.2 407.795 126.6 407.795 123.8C407.795 122.2 408.982 120.8 410.367 120.8C414.127 120.8 412.939 126.2 417.886 126.2C423.624 126.2 428.373 120.8 431.143 104C431.539 101.8 432.33 97.2 433.319 94.4C424.613 103.6 418.282 110 415.907 112.8C408.389 120.4 399.683 128.8 391.372 128.8C386.822 128.8 383.854 126.2 383.854 122.4C383.854 119.8 385.041 116.6 388.009 110.6C381.281 117.8 370.993 128.6 358.131 128.6C350.613 128.6 347.249 124.8 347.249 119.4C347.249 116.8 348.04 114 349.426 111C346.458 110.2 344.083 108.4 342.302 106C338.939 111.4 334.784 117 329.046 122C323.308 127.4 317.767 129.2 313.217 129.2C308.666 129.2 305.698 127 305.698 122.8C305.698 119.8 307.281 116.4 308.666 113.6C302.334 121.2 294.618 129.2 285.714 129.2C281.954 129.2 278.591 127.6 278.591 122.8C278.591 119.8 280.174 117 282.746 112.2C277.403 118 268.698 129 258.607 129C254.056 129 251.483 126.4 251.483 122.6C251.483 119.2 253.066 115.8 254.451 113.4C253.264 115 251.879 116.4 251.088 117.6C243.965 125.6 238.227 129 231.895 129C227.344 129 224.376 126.4 224.376 121.8C224.376 119.6 225.168 116.8 225.959 114.6C219.232 121.8 211.911 128.8 203.601 128.8C199.05 128.8 196.873 126.2 196.873 123C196.873 120.8 197.665 118.4 199.446 115L196.676 118C190.938 123.8 183.814 129 177.087 129C172.932 129 169.964 126.8 169.964 122.6C169.964 119.6 172.141 114.6 177.483 107L174.119 110.6C157.499 126.6 140.878 136.2 123.071 136.2C109.814 136.2 105.659 130.4 105.659 123.2C105.659 121.6 106.054 119.8 106.054 119.8L103.482 122.8C96.7549 131.2 91.8083 135.8 85.2788 135.8C79.9365 135.8 75.3857 133.2 75.3857 128.2C75.3857 125.2 76.9686 122.4 79.1451 118.6C83.6959 111 96.1613 92.6 105.263 79.2C99.5249 83 91.2147 86 80.3323 86C64.899 86 57.3802 79.6 57.3802 70.4C56.9845 59.6 68.2626 51.6 87.2574 51.2ZM461.416 108.8C470.122 107.6 481.004 98.2 481.004 91.6C481.004 90.4 480.608 89.4 479.421 89.4C474.277 90 468.143 96.6 461.416 108.8ZM359.517 108.8C368.222 107.6 379.105 98.8 379.105 91.6C379.105 90.4 378.313 89.4 376.928 89.4C371.586 90 365.057 99.2 359.517 108.8ZM113.969 100.8C122.279 88.6 130.589 75.6 135.932 67.6C133.359 66.4 130.985 65 128.809 63.8C126.039 67.6 91.4126 119.4 89.0382 123.6C86.8617 127 86.466 128.6 86.466 129.4C86.466 130.2 86.8617 131 88.0489 131C89.2361 131 91.0168 130.2 92.9955 128.4C98.1399 124.4 104.669 114.8 113.969 100.8ZM130.589 89.4L133.162 85.2C141.076 85.2 147.21 85.2 151.365 83C161.258 78.4 166.403 67 166.403 61.6C166.403 57.8 164.82 54.4 159.675 54.4C152.156 54.4 145.033 62 140.878 67.4C144.638 69.6 147.606 71.6 149.188 73.2L148.001 75.4C145.429 73.2 142.659 71.6 139.691 69.6C134.744 76 123.862 93.2 116.343 104C121.29 100.6 127.621 99.8 131.777 99.8V102.8C117.135 103.2 108.429 112.8 108.429 123C108.429 128.4 111.397 132.2 119.311 132.2C137.515 132.2 149.584 112.4 149.584 99.8C149.584 94 147.408 88.8 138.306 88.8H134.151C132.568 89 131.381 89.4 130.589 89.4ZM262.762 94.2C262.762 92 261.179 90.4 258.607 90.4C254.056 90.4 249.901 93.4 243.569 101C238.622 107.8 233.082 117.4 233.082 121.6C233.082 122.8 233.478 124.2 235.654 124.2C237.831 124.2 241.392 122.6 246.933 116.6C251.879 111.2 257.815 103.6 261.97 96C262.762 95.4 262.762 94.6 262.762 94.2ZM98.5356 52.2C100.119 52.2 102.295 52.6 103.878 53C110.605 54.2 115.948 56 120.894 57.6C121.686 56.4 122.477 55 123.466 53.8L136.723 53.4C135.536 55 133.359 58.4 130.392 61.8C132.964 63 135.338 64.4 137.91 65.6C146.221 55 154.135 50 164.226 50C175.108 50 179.264 56.4 179.264 62.6C179.264 68.4 175.9 75.2 171.745 79C166.403 84.4 158.884 87 152.948 88.2C156.312 89.8 162.05 92.8 162.05 102.4C162.05 110.4 157.499 118 152.552 123.8C162.445 118 176.691 104.4 182.825 96.4C184.012 94.8 186.98 91 188.167 88.8L199.841 88C199.841 88 184.804 110.6 181.638 116.6C180.055 120 179.066 121.2 179.066 122C179.066 122.8 179.461 123.6 180.649 123.6C185.199 123.6 193.905 116 199.841 107.6C202.809 103.8 212.702 88.6 212.702 88.6L224.772 87.8C215.275 103 211.911 108 211.911 108C208.547 113 206.173 117.6 205.579 120.2C205.184 121 205.184 121.4 205.184 121.8C205.184 123 205.579 123.4 206.767 123.4C213.89 123.4 226.355 107 230.114 102C237.237 92.8 246.339 86.4 255.836 86.4C259.992 86.4 262.96 88 264.147 91C266.719 86.8 271.27 79.6 275.029 73C275.425 72.2 275.821 71.8 276.216 71.4L123.862 12.2L98.5356 52.2ZM61.931 71.4C61.931 74.4 62.7225 76.8 64.899 79C66.0861 80.2 67.8669 81.6 69.8455 82L84.8831 58.8C86.466 58.8 88.6425 58.4 90.6211 58.4C91.8083 58.4 93.1933 58.4 94.3805 58.4L78.5515 83.2C79.3429 83.2 80.1344 83.2 81.1237 83.2C82.3109 83.2 83.6959 83.2 84.8831 83.2C99.7228 82 108.824 74 112.188 69.8C112.188 69.8 119.311 59.8 119.707 59.2C112.584 56.6 102.691 53.8 90.6211 53.8C72.4177 54.6 61.931 61.8 61.931 71.4ZM505.539 195.4C505.539 196.6 505.143 198 504.352 198.8C503.561 199.6 502.176 200 500.988 200C499.801 200 498.416 199.6 497.625 198.8C496.833 198 496.437 196.6 496.437 195.4C496.437 194.2 496.833 192.8 497.625 192C498.416 191.2 499.801 190.8 500.988 190.8C502.176 190.8 503.561 191.2 504.352 192C505.143 192.8 505.539 193.6 505.539 195.4ZM504.55 195.4C504.55 194.2 504.154 193.2 503.363 192.4C502.571 191.6 501.78 191.2 500.395 191.2C499.208 191.2 498.218 191.6 497.427 192.4C496.635 193.2 496.24 194 496.24 195.4C496.24 196.8 496.635 197.6 497.427 198.4C498.218 199.2 499.01 199.6 500.395 199.6C501.78 199.6 502.571 199.2 503.363 198.4C504.154 197.4 504.55 196.2 504.55 195.4ZM502.967 197.8H501.78L500.988 195.6H499.801V197.8H498.614V192H501.186C501.978 192 502.373 192 502.769 192.4C503.165 192.8 503.165 193.2 503.165 193.6C503.165 194.4 502.769 194.8 501.978 195.2L502.967 197.8ZM499.603 195H500.79C501.582 195 501.978 194.6 501.978 194.2C501.978 193.8 501.582 193.4 501.186 193.4H499.999V195H499.603Z" fill="white"/>
</g>
<defs>
<clipPath id="clip0_7_60">
<rect width="611" height="200" fill="white"/>
</clipPath>
</defs>
</svg>
